X:500
T: Nach vieler Arbeit, Sturm und Klt (5-96), S. 152
N: P0770
O: Lothringen
S: MERKELBACH-PINCK, Angelika: Verklingende Weisen, Bd 5, Kassel 1962]
R: historisches Lied, Soldaten-, Kriegslied, religis]
M: 4/4
L: 1/8
K: C
CE | G2G2G2c2 | G2G2E2
GG | F2F2F2G2 | E2E2E2
CE | G2GGG2GG | A2A2A3
A | B2BBB2AG | c2c2c2

